public/static/img/bottom/jiaoyi1.svg

<svg xmlns="http://www.w3.org/2000/svg" width="28" height="28" viewBox="0 0 28 28" fill="none">
  <path fill-rule="evenodd" clip-rule="evenodd" d="M19.33 4.2H8C5.90132 4.2 4.2 5.90132 4.2 7.99999V19.33C4.2 21.4287 5.90132 23.13 7.99999 23.13H19.33C21.4287 23.13 23.13 21.4287 23.13 19.33V8C23.13 5.90132 21.4287 4.2 19.33 4.2ZM8 2C4.68629 2 2 4.68629 2 7.99999V19.33C2 22.6437 4.68629 25.33 7.99999 25.33H19.33C22.6437 25.33 25.33 22.6437 25.33 19.33V8C25.33 4.68629 22.6437 2 19.33 2H8Z" fill="#888888"/>
  <path d="M8 15.1666H18.5V17.4999H13.8334V20.9999L8 15.1666ZM13.8334 10.5V7L19.6667 12.8333H9.16667V10.5H13.8334Z" fill="#888888"/>
</svg>

<svg xmlns="http://www.w3.org/2000/svg" width="28" height="28" fill="none"><path fill-rule="evenodd" clip-rule="evenodd" d="M19.33 4.2H8A3.8 3.8 0 0 0 4.2 8v11.33a3.8 3.8 0 0 0 3.8 3.8h11.33a3.8 3.8 0 0 0 3.8-3.8V8a3.8 3.8 0 0 0-3.8-3.8ZM8 2a6 6 0 0 0-6 6v11.33a6 6 0 0 0 6 6h11.33a6 6 0 0 0 6-6V8a6 6 0 0 0-6-6H8Z" fill="#888"/><path d="M8 15.167h10.5V17.5h-4.667V21L8 15.167Zm5.833-4.667V7l5.834 5.833h-10.5V10.5h4.666Z" fill="#888"/></svg>
